X: 42194
T: Wattentaler, The
R: mazurka
M: 3/4
K: Gmajor
|:d ed|d2 gd BG|F2 Ad fe|d2 fd cF|G2 Bd ge|
d2 gd BG|F2 Ad fe|d2 fe df|g2 g fe|
d2 Bd Bd|d2 cd fe|d2 cd cd|d2 Bd ge|
d2 Bd Bd|d2 cd fe|d2 ^cd ef|g2 g:|

